X:1
T:Maid Gaed Tae The Mill
M:6/8
L:1/8
K:G
 D| G2G-G GG| G2 G G3| d2 d- d2 d| B3 d2 c| c2c-c cc| B2 B G2 G| A2 A G2 B|\
 A3 z2 d| G2 G G2 G| G2 G G2 G| d2 d d2 d| B2- d d3| c2 c c2 c| B3 G3|\
 AA D- D2 F| G6|
